X:31
T: UND MIT DEN HAENDEN KLAPP
N: E1026
O: Europa, Mitteleuropa, Deutschland, Mark
R: Tanz - Lied
M: 2/4
L: 1/16
K: F
c2 | =B2c2d2c2 | G2G2G2
c2 | =B2c2d2c2 | A2A2A2
e2 | f2f2f2e2 | d2d2d2
c2 | B2C2A2G2 | F2F2F2
c2 | =B2c2d2c2 | G2G2G2
c2 | =B2c2d2c2 | A2A2A2
e2 | f2f2f2e2 | d2d2d2
c2 | B2C2A2G2 | F2F2F2
C2 | F2C2F2G2 | ABAGF2
A2 | G2C2D2E2 | F2A2d2c2 |
F2C2F2G2 | ABAGF2
A2 | G2C2D2E2 | F4z2

@@@ Tune index: 4715
